X:1
T:Se rio pensier
T:Se rio pensier
T:Marc'Antonio Tornioli
T:Source : Canzonette spirituale a tre voci---Libro Primo---Venetia---Ang.Gardano---1607. Editor : André Vierendeels (20/06/16).
T:Notes : Original clefs : C1, C1, F4
T:©
T:©
C:Marc'Antonio Tornioli
Z:©
%%score [ 1 2 3 ]
L:1/8
Q:1/4=94
M:4/4
K:C
V:1 treble nm="Soprano 1" snm="S 1"
V:2 treble nm="Soprano 2" snm="S 2"
V:3 bass nm="Bass" snm="B"
V:1
 z4 d2 cB | A2 d2 A4 | A2 c2 B2 A2 | A2 ^G2 A4 | A2 B2 A2 G2 | G2 ^F2 G4 |[M:2/4] G4 :: B4 | %8
w: Se rio pen-|sier t'in- no-|glia, d'of- fen- de-|re'il Si- gno-|re, d'of- fen- de-|re'il Si- gno-|re.|Ri-|
w: Ri- mi- ra|co- me'i lan-|gue, nel du- ro'a-|cer- bo le-|gno, nel du- ro'a-|cer- bo le-|gno.|(O|
[M:4/4] c2 d2 B2 E2 | F4 E4 | z8 | e2 c2 e2 dc | B4 A2 c2- | c2 c2 B4 | c8 | e2 c2 e2 dc | B6 c2 | %17
w: mi- ra'o pec- ca-|to- re,||quan- ta pe- na per|te sof- fer-|* s'e do-|glia,|quan- ta pe- na per|te sof-|
w: rio sup- pli- tio'in-|de- gno),||e ver- sa tuo- a-|mor fiu- mi|_ di san-|gue,|e ver- sa tuo a-|mor fiu-|
 d4 d4 | A8 | G8 :| %20
w: fer- s'e|do-|glia.|
w: mi di|san-|gue?|
V:2
 B2 AG ^F4- | F2 G2 ^F4 | ^F2 A2 d2 c2 | B2 B2 ^c4 | ^c2 d2 =c2 B2 | A2 A2 B4 |[M:2/4] B4 :: G4 | %8
w: Se rio pen- sier|_ t'in- no-|glia, d'of- fen- de-|re'il Si- gno-|re, d'of- fen- de-|re'il Si- gno-|re.|Ri-|
w: Ri- mi- ra co-|* me'i lan-|gue, nel du- ro'a-|cer- bo le-|gno, nel du- ro'a-|cer- bo le-|gno.|(O|
[M:4/4] G2 G2 G2 A2 | A4 A4 | A2 F2 A2 GF | E6 F2 | G4 A4 | F8 | E8 | z8 | G2 D2 G2 FE | %17
w: mi- ra'o pec- ca-|to- re,|quan- ta pe- na per|te sof-|fer- s'e|do-|glia,||quan- ta pe- na per|
w: rio sup- pli- tio'in-|de- gno),|e ver- sa tuo a-|mor fiu-|mi di|san-|gue,||e ver- sa tuo a-|
 F2 D2 ^F2 G2 | G4 ^F4 | G8 :| %20
w: te sof- fer- s'e|do- *|glia.|
w: mor fiu- mi di|san- *|gue?|
V:3
 G,2 F,E, D,4- | D,2 B,,2 D,4 | D,2 A,,2 B,,2 C,2 | D,2 E,2 A,,4 | A,,2 G,,2 A,,2 B,,2 | %5
w: Se rio pen- sier|_ t'in- no-|glia, d'of- fen- de-|re'il Si- gno-|re, d'of- fen- de-|
w: Ri- mi- ra co-|* me'i lan-|gue, nel du- ro'a-|cer- bo le-|gno, nel du- ro'a-|
 C,2 D,2 G,,4 |[M:2/4] G,,4 :: G,4 |[M:4/4] C,2 B,,2 E,2 ^C,2 | D,4 A,,4 | F,2 D,2 F,2 E,D, | %11
w: re'il Si- gno-|re.|Ri-|mi- ra'o pec- ca-|to- ra,|quan- ta pe- na pêr|
w: cer- bo le-|gno.|(O|rio sup- pli- tio'in-|de- gno),|e ver- sa tuo a-|
 C,6 D,2 | E,4 F,4 | D,8 | C,8 | C2 A,2 C2 B,A, | G,6 A,2 | D,6 B,,2 | D,8 | G,,8 :| %20
w: te sof-|fer- s'e|do-|glia,|quan- ta pe- na per|te sof-|fer- s'e|do-|glia.|
w: mor fiu-|mi di|san-|gue,|e ver- sa tuo a-|mor fiu-|mi di|san-|gue?|

